dist/svg/static/indicators-large.svg

<svg xmlns="http://www.w3.org/2000/svg" width="48" height="48" viewBox="0 0 48 48"><path d="M26.5 19.5v8h9v8l11.75-12-11.75-12v8h-9zm-5 8v-8h-9v-8L.75 23.5l11.75 12v-8h9z" fill="none" stroke="currentColor" stroke-miterlimit="10"/></svg>

<?xml version="1.0" encoding="UTF-8" standalone="no"?>
<svg width="48px" height="48px" viewBox="0 0 48 48" version="1.1" xmlns="http://www.w3.org/2000/svg" xmlns:xlink="http://www.w3.org/1999/xlink">
    <!-- Generator: sketchtool 46.2 (44496) - http://www.bohemiancoding.com/sketch -->
    <title>indicators-large</title>
    <desc>Created with sketchtool.</desc>
    <defs></defs>
    <g id="icons-published" stroke="none" stroke-width="1" fill="none" fill-rule="evenodd">
        <g id="briefing" transform="translate(-3168.000000, -794.000000)"></g>
        <g id="indicators-large" stroke="#000000">
            <path d="M26.5,19.5 L26.5,27.5 L35.5,27.5 L35.5,35.5 L47.3,23.5 L35.5,11.5 L35.5,19.5 L26.5,19.5 Z M21.5,27.5 L21.5,19.5 L12.5,19.5 L12.5,11.5 L0.7,23.5 L12.5,35.5 L12.5,27.5 L21.5,27.5 Z" id="Shape"></path>
        </g>
    </g>
</svg>
